X: 25
T: Jackson's Breakdown
I: Jackson's Breakdown	S-J	D	square
C: S-J
M: C|
Z: Transcribed to abc by Mary Lou Knack
R: square
K: D
$SmallLMargin
$SmallRMargin
"D"A2d2 fgfe| d2F2 A3d| "A7"c2E2 G3B| "D"A2D2 F4| \
"D"A2d2 fgfe| d2F2 A3d| "A7"c2A2 B2c2| "D" d4 d4 :| [K:A]
|:\
"A"[c4e4] [c4e4]| e2a2 [c4e4]| "Bm"b2f2 "E7"g2e2| "A"a2c2 e4| \
"A"[c4e4] [c4e4]| e2a2 [c4e4]| "Bm"b2f2 "E7"g2e2| "A"a4 a4 :|
% %text $111/18/99.  Formerly R-32

